svgs/duotone/command.svg

<svg xmlns="http://www.w3.org/2000/svg" viewBox="0 0 448 512"><!-- Font Awesome Pro 6.0.0-alpha2 by @fontawesome - https://fontawesome.com License - https://fontawesome.com/license (Commercial License) --><defs><style>.fa-secondary{opacity:.4}</style></defs><path d="M128 288H96C43.062 288 0 331.062 0 384S43.062 480 96 480S192 436.938 192 384V224H128V288ZM128 384C128 401.656 113.656 416 96 416S64 401.656 64 384S78.344 352 96 352H128V384ZM352 32C299.062 32 256 75.062 256 128V288H320V224H352C404.938 224 448 180.938 448 128S404.938 32 352 32ZM352 160H320V128C320 110.344 334.344 96 352 96S384 110.344 384 128S369.656 160 352 160Z" class="fa-secondary"/><path d="M352 288H192V352H256V384C256 436.938 299.062 480 352 480S448 436.938 448 384S404.938 288 352 288ZM352 416C334.344 416 320 401.656 320 384V352H352C369.656 352 384 366.344 384 384S369.656 416 352 416ZM256 160H192V128C192 75.062 148.938 32 96 32S0 75.062 0 128S43.062 224 96 224H256V160ZM128 160H96C78.344 160 64 145.656 64 128S78.344 96 96 96S128 110.344 128 128V160Z" class="fa-primary"/></svg>

<svg xmlns="http://www.w3.org/2000/svg" viewBox="0 0 448 512"><!--! Font Awesome Pro 6.3.0 by @fontawesome - https://fontawesome.com License - https://fontawesome.com/license (Commercial License) Copyright 2023 Fonticons, Inc. --><defs><style>.fa-secondary{opacity:.4}</style></defs><path class="fa-primary" d="M352 288H192v64h64v32c0 52.94 43.06 96 96 96s96-43.06 96-96S404.9 288 352 288zM352 416c-17.66 0-32-14.34-32-32v-32h32c17.66 0 32 14.34 32 32S369.7 416 352 416zM256 160H192V128c0-52.94-43.06-96-96-96S0 75.06 0 128s43.06 96 96 96h160V160zM128 160H96C78.34 160 64 145.7 64 128s14.34-32 32-32s32 14.34 32 32V160z"/><path class="fa-secondary" d="M128 288H96c-52.94 0-96 43.06-96 96s43.06 96 96 96s96-43.06 96-96V224H128V288zM128 384c0 17.66-14.34 32-32 32s-32-14.34-32-32s14.34-32 32-32h32V384zM352 32c-52.94 0-96 43.06-96 96v160h64V224h32c52.94 0 96-43.06 96-96S404.9 32 352 32zM352 160h-32V128c0-17.66 14.34-32 32-32s32 14.34 32 32S369.7 160 352 160z"/></svg>
